public/assets/images/icons/yellow/remove/vote-stopped.svg

<svg width="16" height="16" xmlns="http://www.w3.org/2000/svg" viewBox="0 0 16 16" shape-rendering="geometricPrecision" fill="#ffad00"><defs><mask id="a"><rect fill="#fff" width="100%" height="100%"/><path fill="#000" d="M8.986 1.143H17v3.565H8.986z"/></mask></defs><path d="M9.986 2.143H16v1.565H9.986z" fill="#cb1800"/><path d="M.995 14.003L14.01 1l.997.997L1.992 15zM7.59 3.71v2.121L9.714 3.71zM3.289 8.548v1.578l1.582-1.578zm3.105 3.558l-.61.61h.61zm4.3.61V7.81L7.59 10.911v1.805zm-7.195 2.285h11.496v-1.102H4.6zm8.393-8.389v6.104h3.103V6.435H12.07zm-9.797 4.705l.001-5.609H.995v7.141l.002-.434zm-1.1 3.684l.801-.002v.002h.195l-.996-.996z" mask="url(#a)"/></svg>

<svg width="16" height="16" xmlns="http://www.w3.org/2000/svg" viewBox="0 0 16 16" shape-rendering="geometricPrecision" fill="#ffad00"><defs><mask id="a"><rect fill="#fff" width="100%" height="100%"/><path fill="#000" d="M8.986 1.143H17v3.565H8.986z"/></mask></defs><path d="M9.986 2.143H16v1.565H9.986z" fill="#cb1800"/><g mask="url(#a)"><path d="M.995 14.002L14.01.998l.996.997L1.99 15zM7.59 3.71v2.12l2.124-2.12M3.29 8.548v1.578l1.58-1.578M6.394 12.106l-.61.61h.61M10.694 12.716V7.81l-3.104 3.1v1.806M3.5 15h11.495v-1.1H4.6M11.892 6.612v6.104h3.103v-6.28H12.07M2.095 11.317v-5.61h-1.1v7.142l.002-.435"/><path d="M.995 15h.996l-.995-.995"/></g></svg>
